X:1802
T:Gammellappen Cello
R:Vals
O:Västerbotten
Z:Anton Teljebäck
M:3/4
L:1/4
K:Dm
C,, | D,,3 | E,,3 | F,,3  | G,,3 | A,,3 | G,,3 | F,,F,,E,,  | D,,2 C,,|
| D,,3 | E,,3 | F,,3  | G,,3 | A,,3 | B,,3 | C,3 | D,3 ||
|: D3 | ^C3 | =C3 | =B,3 | _B,3 | |A,3 | A,A,A, | D,3 :| 
(:musicend:)


(:music:)
